src/public/img/icons/terms_policies.svg

<svg width="20" height="20" viewBox="0 0 20 20" fill="none" xmlns="http://www.w3.org/2000/svg">
<path d="M4.1665 5.83329C4.1665 4.91282 4.9127 4.16663 5.83317 4.16663H14.5832C15.5037 4.16663 16.2498 4.91282 16.2498 5.83329V12.0833C16.2498 13.0038 15.5037 13.75 14.5832 13.75H12.3957L10.2082 16.25L8.02067 13.75H5.83317C4.9127 13.75 4.1665 13.0038 4.1665 12.0833V5.83329Z" stroke="white" stroke-width="1.5" stroke-linecap="round" stroke-linejoin="round"/>
<path d="M10.2085 6.875V8.54167" stroke="white" stroke-width="2" stroke-linecap="round" stroke-linejoin="round"/>
<path d="M10.6248 11.0417C10.6248 11.2718 10.4383 11.4583 10.2082 11.4583C9.97809 11.4583 9.7915 11.2718 9.7915 11.0417C9.7915 10.8116 9.97809 10.625 10.2082 10.625C10.4383 10.625 10.6248 10.8116 10.6248 11.0417Z" stroke="white" stroke-linecap="round" stroke-linejoin="round"/>
</svg>

<svg xmlns="http://www.w3.org/2000/svg" width="20" height="20" fill="none">
  <path stroke="#fff" stroke-linecap="round" stroke-linejoin="round" stroke-width="1.5" d="M4.167 5.833c0-.92.746-1.666 1.666-1.666h8.75c.92 0 1.667.746 1.667 1.666v6.25c0 .92-.746 1.667-1.667 1.667h-2.187l-2.188 2.5-2.187-2.5H5.833c-.92 0-1.667-.746-1.667-1.667v-6.25Z"/>
  <path stroke="#fff" stroke-linecap="round" stroke-linejoin="round" stroke-width="2" d="M10.209 6.875v1.667"/>
  <path stroke="#fff" stroke-linecap="round" stroke-linejoin="round" d="M10.625 11.042a.417.417 0 1 1-.833 0 .417.417 0 0 1 .833 0Z"/>
</svg>
